X: 15
T:Life Let Us Cherish. ST.15
M:6/8
L:1/8
Q:120
S:Annonymous Staffordshire MS, Early 19thC.
R:Jig
O:England
A:Staffordshire
Z:vmp.Tim Willets
K:G
B3cBc|(d2g)g2z|G3AGA|BcBA3|!
B2B cBc|(d2g)g3|B3AGA|(G3G2)||!
d|d2c ABc|d2BG2d|d2c ABc|d2BG2d|!
e2cg2g|d2Bg2d|ded (dcB)|B3A2z||!
"P"B3cBc|d2gg2z|G3AGA|BcBA3|!
B2B cBc|d2gg3|B3AGB|G3G2|]
